X:1
T:Mrs Oswald (of Auchincruive's) Favourite Reel
C:
R:Jig
Q:180
K:G
M:6/8
L:1/16
B6 c2A2d2|G6 G2A2B2|E2F2G2 A2B2c2|B2A2G2 F2E2D2|B6 c2A2d2|G6 G2A2B2|E2c2B2 A2G2F2|G6G6|
B6 c2A2d2|G6 G2A2B2|E2F2G2 A2B2c2|B2A2G2 F2E2D2|B6 c2A2d2|G6 G2A2B2|E2c2B2 A2G2F2|G6G6|
g6 g2a2f2|g2d2c2 B2A2G2|A2B2c2 B2c2d2|E2F2G2 F2E2D2|g6 g2a2f2|g2d2c2 B2A2G2|A2e2d2 c2B2A2|G6 G4d2|
g2b2a2 g2a2f2|g2d2c2 B2A2G2|A2B2c2 B2c2d2|E2A2G2 F2E2D2|E2F2G2 A2B2c2|F2G2A2 B2c2d2|e2f2g2 a2f2d2|g2d2B2 G6||
